resources/svg/ngc.svg

<svg width="15" height="15" viewBox="0 0 15 15" fill="none" xmlns="http://www.w3.org/2000/svg">
<path fill-rule="evenodd" clip-rule="evenodd" d="M12.1171 3.00533C9.17225 1.72495 5.82762 1.72495 2.88279 3.00533C1.27485 3.09967 0 4.43352 0 6.06512V6.46125C0 6.47417 7.23196e-05 6.48709 0.000216763 6.5L0 12.2639C0 13.2227 0.777264 14 1.73607 14C2.39364 14 2.99478 13.6285 3.28885 13.0403L3.8054 12.0072C4.60793 12.3678 5.57917 12.277 6.31342 11.6896C7.07589 11.0796 7.39757 10.0715 7.12932 9.13261L6.80572 8H8.19428L7.87068 9.13261C7.60243 10.0715 7.92411 11.0796 8.68658 11.6896C9.42083 12.277 10.3921 12.3678 11.1946 12.0072L11.7111 13.0403C12.0052 13.6285 12.6064 14 13.2639 14C14.2227 14 15 13.2227 15 12.2639V6.5C15.0001 6.48709 15 6.47417 15 6.46125V6.06512C15 4.43347 13.7251 3.09959 12.1171 3.00533ZM4.64383 3.43778C5.29351 3.82839 5.79325 4.45636 6.01231 5.22307L6.52001 7H8.47999L8.98769 5.22307C9.20674 4.45638 9.70647 3.82842 10.3561 3.4378C8.4885 2.91413 6.51147 2.91412 4.64383 3.43778ZM14 8.92539L12.0913 11.3113C12.0655 11.3436 12.039 11.375 12.0118 11.4057L12.6056 12.5931C12.7303 12.8425 12.9851 13 13.2639 13C13.6705 13 14 12.6705 14 12.2639V8.92539ZM2.98816 11.4057C2.96104 11.375 2.93454 11.3436 2.90871 11.3113L1 8.92539V12.2639C1 12.6705 1.32955 13 1.73607 13C2.01487 13 2.26974 12.8425 2.39443 12.5931L2.98816 11.4057Z" fill="black"/>
</svg>

<svg viewBox="0 0 15 15" fill="none" xmlns="http://www.w3.org/2000/svg" fill="currentColor"><path fill-rule="evenodd" clip-rule="evenodd" d="M12.117 3.005a11.58 11.58 0 00-9.234 0A3.065 3.065 0 000 6.065v6.199a1.736 1.736 0 003.289.776l.516-1.033A2.422 2.422 0 007.13 9.133L6.806 8h1.388l-.323 1.133a2.422 2.422 0 003.324 2.874l.516 1.033A1.736 1.736 0 0015 12.264V6.065a3.065 3.065 0 00-2.883-3.06zm-7.473.433c.65.39 1.15 1.018 1.368 1.785L6.52 7h1.96l.508-1.777a3.063 3.063 0 011.368-1.785 10.582 10.582 0 00-5.712 0zM14 8.925l-1.909 2.386a2.416 2.416 0 01-.08.095l.595 1.187a.736.736 0 001.394-.33V8.926zm-11.012 2.48a2.516 2.516 0 01-.08-.094L1 8.925v3.339a.736.736 0 001.394.33l.594-1.188z" fill="currentColor"/></svg>
